X: 1823
T: Sir Patrick Bellew's March
M:6/8
L:1/8
B:O'Neill's 1823
Z:"Transcribed by Bob Safranek, rjs@gsp.org"
K:G
   ded  B2 G | d2 d BAG | d2 d gdB | A2   G    ABc  |
   d2 d B2 G | d2 d BAG | d2 d gdB | A2   G    ABG :|
|: G>AG g2 d | ece d2 c | Bcd  ecA | G2 (A/G/) FED  |
   G>AG gd=f | ece d2 c | Bcd  ded | e2   B    ABG :|


